!!!OTL: No_15_Song_of_Y'ak,_the_Medicine_Man_(a).krn
!!!REG: British Columbia
!!!SOCIAL_FUNCTION: songs with treatment of the sick
**kern	**kern
*staff2	*staff1
=1-	=1-
*clefF4	*clefF4
*k[f#c#g#d#]	*k[f#c#g#d#]
*M2/4	*M2/4
8GG#/L	4G#\
8GG#/J	.
8GG#/L	8.B\L
8GG#/J	.
.	16B\Jk
=2	=2
8GG#/L	12B\L
.	12G#\
8GG#/J	.
.	12G#\J
4r	8.B\L
.	16B\Jk
=3	=3
2r	16B\LK
.	8.G#\J
.	8.G#\L
.	16G#\Jk
=4	=4
2r	8E\
.	8r
.	8.G#\L
.	16G#\Jk
=5	=5
2r	4G#\
.	8.G#\L
.	16G#\Jk
=6	=6
2r	8.G#\L
.	16E\Jk
.	8.G#\L
.	16G#\Jk
=7	=7
2r	16G#\LK
.	8.E\J
.	8.E\L
.	16E\Jk
=8	=8
2r	8BB/
.	8r
.	8.E\L
.	16E\Jk
=9	=9
2r	4E\
.	8.G#\L
.	16G#\Jk
=10	=10
2r	8G#\
.	8r
.	12G#\L
.	12E\
.	12E\J
=11	=11
2r	4E\
.	8.E\L
.	16E\Jk
=12	=12
2r	8C#/
.	8r
.	8.C#/L
.	16C#/Jk
=13	=13
2r	4C#/
.	8.E\L
.	16G#\Jk
=14	=14
2r	8G#\
.	8r
.	12B\L
.	12G#\
.	12B\J
=15	=15
2r	4G#\
.	8.B\L
.	16B\Jk
=16	=16
2r	16B\LL
.	16G#\JJ
.	8r
.	8.B\L
.	16B\Jk
=17!|:	=17!|:
2r	4G#\
.	8.G#\L
.	16G#\Jk
=18	=18
2r	8E\
.	8r
.	8.B\L
.	16B\Jk
=19	=19
2r	4G#\
.	8.G#\L
.	16G#\Jk
=20	=20
2r	12G#\L
.	12E\
.	12E\J
.	8.G#\L
.	16G#\Jk
=21	=21
2r	4E\
.	8.E\L
.	16E\Jk
=22	=22
2r	8C#/
.	8r
.	8.E\L
.	16E\Jk
=23	=23
2r	4E\
.	8.G#\L
.	16G#\Jk
=24	=24
2r	8G#\
.	8r
.	12G#\L
.	12E\
.	12E\J
=25	=25
2r	4E\
.	8.E\L
.	16E\Jk
=26	=26
2r	8C#/
.	8r
.	8.C#/L
.	16C#/Jk
=27	=27
2r	4C#/
.	8.E\L
.	16G#\Jk
=28	=28
2r	8G#\
.	8r
.	12B\L
.	12G#\
.	12G#\J
=29	=29
2r	4G#\
.	8.B\L
.	16B\Jk
=30	=30
2r	16B\LK
.	8.G#\J
.	12B\L
.	12G#\
.	12G#\J
=31:|!	=31:|!
2r	16B\LK
.	8.G#\J
.	4r
==	==
*-	*-
